X:1
T:Deming, 87.87 D
T:Deming, 87.87 D
T:Ted Robertson, 1918
T:Public Domain Courtesy of the Cyber Hymnal™
C:Ted Robertson, 1918
Z:Public Domain
Z:Courtesy of the Cyber Hymnal™
%%score 1 ( 2 3 )
L:1/8
Q:1/4=90
M:3/4
K:Ab
V:1 treble 
V:2 bass 
V:3 bass 
V:1
 [CE][DF] | [CE]3 [Ec] [FB][FA] | [DF] [CE]3 [CA][DB] | [FA]3 [EA] [=Dc][DB] | %4
 [EB]4 [Ec][Ae] [Ae]3 [Ec][FB][FA] | [DF] [CE]3 [DF][DG] | [CA]3 [Ec] [Ec][EB] | [CA]4 [CA][DB] | %8
 [CA]3 [EA] [FB][FA] | [DF] [CE]3 [EA][EB] | [Ec]3 [CA] [Ec][Ee] | [EB]4 [Ec][Ae] | %12
 [Ae]3 [Ec] [FB][FA] | [DF] [CE]3 [DF][DG] | [CA]3 [Ec] [Ec][DB] | [CA]4 |] %16
V:2
 [A,,A,][A,,A,] | [A,,A,]3 [A,,A,] [D,A,][D,A,] | [A,,A,] [A,,A,]3 [A,,E,][C,A,] | %3
 [D,A,]3 [C,A,] [B,,A,][B,,A,] | [E,G,]4 A,[A,C] [A,C]3 [C,A,][D,A,][D,A,] | %5
 [A,,A,] [A,,A,]3 [D,A,][B,,B,] | [E,A,]3 [E,A,] [E,A,][E,G,] | [A,,A,]4 [A,,E,][E,G,] | %8
 [F,A,]3 [C,A,] [D,A,][D,A,] | [A,,A,] [A,,A,]3 [C,A,][E,G,] | A,3 A, A,[C,A,] | [E,G,]4 A,[A,C] | %12
 [A,C]3 [C,A,] [D,A,][D,A,] | [A,,A,] [A,,A,]3 [D,A,][B,,B,] | [E,A,]3 [E,A,] [E,A,][E,G,] | %15
 [A,,A,]4 |] %16
V:3
 x2 | x6 | x6 | x6 | x4 A, x7 | x6 | x6 | x6 | x6 | x6 | A,3 A, A, x | x4 A, x | x6 | x6 | x6 | %15
 x4 |] %16

